X: 96
T: Depart\'es vous
N: Derived from Ock3025-Departes_vous.krn
C: Johannes Ockeghem
%%abc-version 2.0
%%abcx-abcm2ps-target-version 5.9.1 (29 Sep 2008)
%%abc-creator hum2abc beta
%%abcx-conversion-date 2019/02/17 07:26:16
%%abc-edited-by Jesse Rodin
%%abc-edited-by Chris Gage 06-26-2012
%%abcx-initial-encoding-date 2012/06/26/
%%humdrum-veritas 2961676501
%%humdrum-veritas-data 1134190115
%%linebreak <none>
%%barnumbers 0
L: 1/4
M: 2/1
Q: 1/2=120
V: 1 clef=treble
V: 2 clef=treble-8
V: 3 clef=bass
K: C
[V:1] D6E2 | 
[V:2] z8 | 
[V:3] z8 | 
[V:1] F4G4 | 
[V:2] z8 | 
[V:3] z8 | 
[V:1] A4A4 | 
[V:2] z8 | 
[V:3] D,6E,2 | 
[V:1] A4_B4 | 
[V:2] z8 | 
[V:3] F,4G,4 | 
[V:1] A2A4G2 | 
[V:2] D6E2 | 
[V:3] A,8 | 
[V:1] F2E2D4 | 
[V:2] F4G4 | 
[V:3] D,2C,2B,,4 | 
[V:1] C4F4 | 
[V:2] A8 | 
[V:3] A,,4D,4 | 
[V:1] E2G4F2 | 
[V:2] G8 | 
[V:3] E,4C,4- | 
[V:1] E2D2D4- | 
[V:2] A4F4 | 
[V:3] C,4D,4 | 
[V:1] D4^C4 | 
[V:2] E8 | 
[V:3] A,,8 | 
[V:1] D8 | 
[V:2] D8 | 
[V:3] z4A,4 | 
[V:1] z4F4 | 
[V:2] d8 | 
[V:3] _B,3A,F,2G,2 | 
[V:1] E4E4 | 
[V:2] c8 | 
[V:3] A,8 | 
[V:1] D8 | 
[V:2] f6e2 | 
[V:3] D,8 | 
[V:1] A8 | 
[V:2] d2c2d4 | 
[V:3] F,8 | 
[V:1] G4A4 | 
[V:2] e4f4 | 
[V:3] E,4D,4 | 
[V:1] c4B4- | 
[V:2] e4d4- | 
[V:3] C,4G,4- | 
[V:1] B2A2A4- | 
[V:2] d4c4 | 
[V:3] G,4A,4 | 
[V:1] A4^G4 | 
[V:2] B8 | 
[V:3] E,8 | 
[V:1] A8 | 
[V:2] A8- | 
[V:3] A,,8 | 
[V:1] z8 | 
[V:2] A8 | 
[V:3] D,8 | 
[V:1] D4E2F2- | 
[V:2] z8 | 
[V:3] _B,4A,4 | 
[V:1] F2G2E4 | 
[V:2] z8 | 
[V:3] D2B,2^C4 | 
[V:1] D2F2G2A2 | 
[V:2] D4E2F2- | 
[V:3] D3CB,2A,2- | 
[V:1] D4^C2B,2 | 
[V:2] F2G2E4 | 
[V:3] A,2B,2G,3F, | 
[V:1] D4F4 | 
[V:2] D8 | 
[V:3] A,4z4 | 
[V:1] F4G2A2- | 
[V:2] d4c4 | 
[V:3] D,4E,2F,2- | 
[V:1] A2D2E2G2 | 
[V:2] d2B2c4 | 
[V:3] F,2G,2E,4 | 
[V:1] F2A3GF2 | 
[V:2] d4A4 | 
[V:3] D,4z2D,2 | 
[V:1] E4C2F2 | 
[V:2] G2A4D2 | 
[V:3] E,2A,,4A,2 | 
[V:1] G2E4D2 | 
[V:2] E2G2F4 | 
[V:3] G,2B,2A,3G, | 
[V:1] !fermata!E8 | 
[V:2] !fermata!E8- | 
[V:3] B,8 | 
[V:1] z8 | 
[V:2] E8 | 
[V:3] G,2A,2B,4 | 
[V:1] G6A2 | 
[V:2] e8 | 
[V:3] C6C2 | 
[V:1] B4B4 | 
[V:2] d8 | 
[V:3] G,8 | 
[V:1] A4d4- | 
[V:2] f8 | 
[V:3] D8 | 
[V:1] d2^c2c2B2 | 
[V:2] e8 | 
[V:3] A,8 | 
[V:1] d4e4 | 
[V:2] d4c4 | 
[V:3] _B,4A,4 | 
[V:1] d4c4 | 
[V:2] d2f2e4 | 
[V:3] D,4A,4 | 
[V:1] d6c2 | 
[V:2] d8 | 
[V:3] D,4_B,3A, | 
[V:1] B2A2B4 | 
[V:2] z4d4 | 
[V:3] G,2F,2G,4 | 
[V:1] c2A2A4- | 
[V:2] A4c4 | 
[V:3] A,8 | 
[V:1] A2^G2G2^F2 | 
[V:2] B8 | 
[V:3] E,8 | 
[V:1] A4z4 | 
[V:2] A8 | 
[V:3] F,4D,4 | 
[V:1] (3c6B2A4 | 
[V:2] z8 | 
[V:3] A,8 | 
[V:1] (3G4E4F4 | 
[V:2] (3c6B2A4 | 
[V:3] z8 | 
[V:1] (3G6F2D4 | 
[V:2] (3G4E4F4 | 
[V:3] z8 | 
[V:1] (3:2:2E4D8 | 
[V:2] (3G6F2D4 | 
[V:3] (3_B,8A,2D2 | 
[V:1] (3:2:4G4F2G2A4 | 
[V:2] (3:2:2E4D8 | 
[V:3] (3C2B,2D8 | 
[V:1] (3_B4A4F4 | 
[V:2] (3:2:4G4F2G2A4 | 
[V:3] (3:2:2D4D,8 | 
[V:1] (3:2:4G6F2E2D2 | 
[V:2] (3B4G4A4 | 
[V:3] (3z4E,4C,4 | 
[V:1] (3:2:2D8^C4 | 
[V:2] (3:2:2F4E8 | 
[V:3] (3:2:2D,4A,,8 | 
[V:1] D8 |]  
[V:2] D8 |]  
[V:3] A,8 |]  



